docs/saddle.svg

<svg width="40" height="40" xmlns="http://www.w3.org/2000/svg" fill="none">

 <g>
  <title>Layer 1</title>
  <circle id="svg_1" fill="white" r="20" cy="20" cx="20"/>
  <path id="svg_2" fill="#4B11F2" d="m29.1913,11.5366c0,0 1.1962,-2.97003 1.0415,-3.65067c-0.1443,-0.66001 -0.1546,-0.86626 -1.2375,-1.67065c-0.4331,0.19594 -1.2066,0.47439 -1.8356,0.35063c-0.9282,-0.17531 -1.4025,-0.495 -1.846,-0.88688c-0.4434,-0.39189 -0.6806,-0.96939 -0.7219,-1.30971c-0.0103,-0.0825 0.0825,-0.14438 0.1547,-0.09281c0.3816,0.27844 0.691,0.78376 1.7738,1.1447c0.6188,0.20625 1.1241,0.14438 1.4335,0.04125c-1.3716,-0.94876 -3.362,-2.24816 -4.5479,-2.64004c-1.516,-0.49501 -2.1966,0.47438 -2.1966,0.47438l-1.4232,2.24816c0,0 2.3926,0.35063 4.8367,1.72221c2.4338,1.36127 4.5685,4.26943 4.5685,4.26943z"/>
  <path id="svg_3" fill="#4B11F2" d="m33.0067,14.9101c-0.2991,0.0413 -0.7528,0.0413 -1.3613,-0.1134c-2.3822,-0.6703 -3.8466,-4.5994 -7.9716,-7.07447c-6.5898,-3.40317 -10.1271,-0.33001 -10.1271,-0.33001c-0.4537,0.30938 0.0103,0.50532 0.0103,0.50532l2.1657,1.09314l1.021,0.53626c0,0 -0.6497,0.83536 -1.9698,0.19594c-0.4331,-0.18562 -1.2994,-0.23719 -1.9697,0.36092c-0.7322,0.4022 -0.4125,1.5675 -0.9487,2.3101c-0.526,0.7425 -1.5779,0.6187 -1.6913,1.6912c-0.0928,1.0932 0.7734,1.2994 0.7941,2.1141c0.0206,0.8147 -0.2785,1.2788 -0.361,1.4954c-0.0309,0.0928 -0.0515,0.2062 -0.0515,0.3197c0.0103,0.1546 0.0825,0.3093 0.1856,0.4331c0.0825,0.0928 0.1547,0.1547 0.2372,0.2062c0.3506,0.2372 0.6497,0.5466 0.8456,0.9179c0.0309,0.0618 0.0619,0.1237 0.1031,0.1856c0.031,0.0516 0.0619,0.1134 0.1032,0.1856c0.2268,0.4022 0.3197,0.8766 0.2372,1.3407c-0.0207,0.1237 -0.0104,0.2681 0.0309,0.4022c0.0825,0.2475 0.2991,0.4331 0.5569,0.5053c0.3815,0.0928 0.7115,0.3197 0.9384,0.6394c0.0206,0.0206 0.031,0.0515 0.0516,0.0721c0.3094,0.4332 0.2475,1.1138 0.3712,1.6088c0.1238,0.495 0.5363,0.6497 1.1344,0.99c0.5982,0.3404 0.7219,0.8766 0.4744,1.1344c-0.2475,0.2578 -1.7119,-0.3712 -2.2997,0.33c-0.4331,0.4022 -0.2475,0.66 -0.4641,1.4232c-0.2165,0.7734 -0.8766,0.2062 -1.2272,0.7425c-0.3506,0.5362 -0.4022,1.1138 -0.2269,2.2585c0.1754,1.1447 1.2891,2.7225 1.2891,2.7225c0,0 -0.5981,-2.0832 0.7013,-3.8672c1.1034,-1.2994 1.9491,-1.4748 3.1969,-1.4954c1.2581,-0.0309 3.1144,1.1035 3.496,3.331c0.1959,1.4747 -0.6085,2.3307 -0.6703,2.4132c-0.1444,0.165 -1.3304,1.4747 -2.9082,0.5981c-0.4331,-0.2991 -0.8147,-0.6084 -1.0725,-1.2066c-0.1856,-0.5466 -0.2372,-1.2788 0.0722,-1.7738c0.2578,-0.4125 0.6703,-0.5362 0.7941,-0.5465c0.1856,-0.0207 0.5878,-0.0103 0.8456,0.1856c0.2578,0.1959 0.5362,0.4847 0.4847,0.9797c-0.0516,0.495 -0.5672,0.6394 -0.7632,0.5981c-0.165,-0.0309 -0.0515,-0.0103 -0.0103,0c-0.3197,-0.0206 -0.464,-0.2681 -0.5259,-0.4434c-0.0103,-0.0413 -0.0722,-0.0309 -0.0825,0.0103c-0.0928,0.6806 0.4228,1.1138 0.7322,1.186c0.3403,0.0721 0.8456,0.0618 1.2581,-0.361c0.361,-0.3609 0.5569,-0.6703 0.5569,-1.4644c0,-0.6497 -0.2681,-1.1034 -0.7116,-1.4953c-0.5775,-0.5363 -1.3406,-0.7425 -1.8666,-0.7013c-0.495,0.0413 -1.3612,0.2475 -1.9284,1.1447c-0.526,0.825 -0.7528,1.9594 -0.3094,3.2279l0.0206,0.0412c1.0107,2.3616 3.3723,2.9598 5.0017,2.9598c0.33,0 0.629,-0.0207 0.8765,-0.0619c0.0516,-0.0103 1.2169,-0.1856 2.3513,-0.8869c1.4025,-0.9281 2.2379,-2.2688 2.2379,-4.3416c0,-2.7535 -1.2066,-4.5891 -3.6816,-7.4561c-0.4744,-0.5878 -2.4029,-2.97 -2.7535,-3.4341c-1.7222,-2.2275 -3.6507,-4.8469 -2.6916,-6.8373c0.0309,-0.0618 0.0618,-0.1134 0.0928,-0.1753c1.4334,-2.6297 5.476,-1.98 4.5891,-1.815c-1.5366,0.2578 -2.4544,0.9384 -2.7328,1.2375c-0.2785,0.2991 -0.4332,0.5569 -0.6188,1.0416c-0.3197,0.7941 -0.0619,2.0213 0.6188,3.0938c2.9597,4.1972 7.3323,9.4257 7.8685,10.6839c0.691,1.5881 0.7941,2.8463 0.7838,3.6197c-0.0103,0.7735 -0.196,2.011 -0.196,2.011c0,0 1.021,-0.8147 1.5057,-1.8047c0.4847,-0.99 0.5672,-1.4644 0.4228,-1.8357c-0.1547,-0.3712 -0.5363,-0.3815 -0.6909,-0.99c-0.1547,-0.6084 0.2784,-1.1447 -0.1754,-2.1141c-0.1959,-0.4228 -1.2375,-1.0416 -1.7737,-1.7222c-0.5363,-0.6806 -1.516,-1.8975 -2.2482,-2.8772c-1.32,-1.7532 -1.7531,-2.3513 -2.5163,-3.3413c0.825,0.2475 1.8563,0.5878 4.2282,-0.5156c2.1966,1.124 3.7022,1.0622 4.2282,1.0312c0.5259,-0.0309 1.0209,-0.2681 1.4025,-0.5672c0.2475,-0.1959 0.4331,-0.5878 0.5466,-0.8456c0.0412,-0.0928 -0.0516,-0.1753 -0.1444,-0.1444c-1.846,0.7631 -3.5475,0.1444 -5.641,-1.0209l-0.3713,-0.2063l-0.3712,0.1959c-2.1966,1.1757 -4.5067,0.2579 -4.7129,0.1754c-0.0825,-0.0413 -0.7116,-0.3713 -0.99,-0.9282c-0.2785,-0.5569 -0.3403,-1.1447 -0.1341,-1.6397c0.165,-0.4022 0.5569,-0.6703 1.1963,-0.8044c0.5259,-0.0619 1.2066,0.1341 1.7531,0.3507c0.1238,0.0515 0.2372,-0.0722 0.1857,-0.1857c-0.0619,-0.165 -0.1032,-0.3403 -0.1032,-0.5259c0,-0.3094 0.1032,-0.5878 0.2682,-0.8147l0.7322,0.3403c-0.1238,0.1237 -0.196,0.3094 -0.1754,0.5156c0.031,0.2682 0.2579,0.495 0.526,0.526c0.3609,0.0515 0.66,-0.2166 0.6909,-0.5569l0.691,0.3197c-0.1238,0.5053 -0.5156,0.8972 -1.021,1.0209c-0.1031,0.0207 -0.1134,0.1547 -0.0103,0.1857c0.9385,0.4434 3.6816,1.7222 3.6816,1.7222c0,0 1.5882,0.8869 2.9804,0.7115c1.3406,-0.0721 1.9388,-1.1343 1.1447,-1.0312c-0.7941,0.1031 -2.671,-0.7116 -2.671,-0.7116l-1.2581,-0.5878l0.5259,-0.8147c0,0 1.7944,1.0209 3.3826,1.3716c1.0519,0.2269 1.7634,-0.3713 2.1244,-0.8044c0.1134,-0.1135 0.0103,-0.2991 -0.1444,-0.2785zm-14.6852,-3.5784c-0.6703,0.0825 -1.6913,0.3918 -2.2688,0.6703c-0.2166,0.1031 -0.4022,0.2062 -0.5569,0.299c-0.5053,0.33 -0.9591,0.8251 -1.32,1.5057c-1.4128,2.7432 1.1756,6.1051 3.2588,8.807c0.3506,0.4537 0.6703,0.8766 0.9591,1.2684c0.4434,0.6085 0.9281,1.2066 1.4025,1.7738c1.2169,1.4954 2.5575,3.0835 3.135,4.847c0.1547,0.6187 0.1754,1.1962 0.1032,1.6603c-0.2475,1.4438 -1.5057,1.9388 -1.5057,1.9388c0.1857,-0.5982 0.2888,-1.3716 0.1753,-2.2585l0,-0.0206c-0.3815,-2.0729 -2.0625,-3.9085 -2.0625,-3.9085c-0.4022,-0.5363 -0.8353,-1.0931 -1.1859,-1.5469c-3.5373,-4.5479 -3.8879,-5.0635 -4.7232,-6.5795l-0.0104,-0.0206c-0.0206,-0.0412 -0.0515,-0.0928 -0.0825,-0.1444c-0.4846,-0.8147 -1.784,-2.9906 -1.2168,-5.2697c0.134,-0.526 0.3712,-1.0004 0.7115,-1.4129c2.0729,-2.6916 6.0432,-1.7737 5.1873,-1.6087z"/>
 </g>
</svg>

<svg width="100%" height="40" viewBox="0 0 161 40" fill="none" xmlns="http://www.w3.org/2000/svg"><path d="M58.87 30.2199C58.87 29.489 58.6053 28.9093 58.076 28.4808C57.5719 28.0524 56.6268 27.5231 55.2405 26.893L52.6697 25.6832C50.2249 24.5238 49.0024 22.7342 49.0024 20.3146C49.0024 18.4999 49.6956 17.0506 51.0818 15.9669C52.468 14.8831 54.3584 14.3412 56.7528 14.3412C58.9708 14.3412 61.1888 14.6814 63.4068 15.3619L61.2896 20.8439H61.214L58.2651 15.5888C58.0382 15.2107 57.7484 15.0217 57.3955 15.0217H56.8662C55.9841 15.0217 55.2531 15.2485 54.6734 15.7022C54.0937 16.1559 53.8039 16.8112 53.8039 17.6682C53.8039 18.4495 54.0685 19.0796 54.5978 19.5585C55.1523 20.0374 56.0471 20.5541 57.2821 21.1086L59.7017 22.1671C61.0627 22.7468 62.0961 23.4274 62.8019 24.2087C63.5328 24.99 63.8982 26.0486 63.8982 27.3845C63.8982 29.3756 63.1295 30.9257 61.592 32.0347C60.0546 33.1185 58.0004 33.6604 55.4296 33.6604C53.0099 33.6604 50.6911 33.2697 48.4731 32.4883L50.5525 26.6283H50.6281L53.6527 32.4883C53.8039 32.816 54.0685 32.9798 54.4466 32.9798H55.3161C56.3999 32.9798 57.2569 32.7278 57.887 32.2237C58.5423 31.7196 58.87 31.0517 58.87 30.2199Z" fill="white"></path><path d="M82.5741 21.9781C82.5741 22.1293 82.5615 22.394 82.5363 22.772C82.5363 23.1249 82.5363 23.3139 82.5363 23.3391L82.3095 28.7077C82.2339 30.1695 82.5741 30.9005 83.3302 30.9005C83.8091 30.9005 84.162 30.6736 84.3888 30.2199H84.4644C84.4644 30.724 84.3636 31.1777 84.162 31.581C83.4815 32.9672 82.2465 33.6604 80.4569 33.6604C79.3227 33.6604 78.365 33.3453 77.5836 32.7152C76.8023 32.0599 76.3864 31.1525 76.336 29.9931C75.958 31.1021 75.3026 31.9969 74.3701 32.6774C73.4627 33.3327 72.4041 33.6604 71.1943 33.6604C69.7325 33.6604 68.5101 33.1941 67.5271 32.2615C66.5441 31.3037 66.0526 29.9931 66.0526 28.3296C66.0526 26.5653 66.6827 25.1791 67.943 24.1709C69.2284 23.1375 70.7154 22.6208 72.4041 22.6208C74.118 22.6208 75.4539 22.9611 76.4116 23.6416L76.4873 19.5963V19.4073C76.4873 16.5087 75.5673 15.0595 73.7274 15.0595C73.3493 15.0595 73.1099 15.0847 73.009 15.1351C72.9334 15.1855 72.8326 15.3115 72.7066 15.5132L69.6443 21.1842H69.5686L67.1868 15.7778C69.8585 14.8201 72.4041 14.3412 74.8238 14.3412C77.4954 14.3412 79.4488 14.9209 80.6838 16.0803C81.944 17.2649 82.5741 19.2308 82.5741 21.9781ZM75.0128 23.7928C74.055 23.7928 73.2989 24.1583 72.7444 24.8892C72.2151 25.6201 71.9505 26.5527 71.9505 27.6869C71.9505 28.6951 72.1521 29.489 72.5554 30.0687C72.9838 30.6232 73.5257 30.9005 74.181 30.9005C75.038 30.9005 75.7563 30.4594 76.336 29.5772V29.5394L76.4116 24.0197C75.958 23.8684 75.4917 23.7928 75.0128 23.7928Z" fill="white"></path><path d="M105.133 5.79688V30.5224C105.133 30.9257 105.247 31.2281 105.473 31.4298L107.364 33.2823V33.3579H98.9707V29.8041C97.8617 32.3749 96.0092 33.6604 93.4131 33.6604C91.1951 33.6604 89.393 32.816 88.0067 31.1273C86.6457 29.4386 85.9652 27.082 85.9652 24.0575C85.9652 21.159 86.7213 18.815 88.2336 17.0254C89.7711 15.2359 91.7244 14.3412 94.0936 14.3412C96.4376 14.3412 98.0633 15.3493 98.9707 17.3657V9.53973C98.9707 9.13646 98.8446 8.8214 98.5926 8.59456L96.7779 6.85546V6.77985L105.133 5.79688ZM96.3242 30.8249C97.3576 30.8249 98.2397 30.346 98.9707 29.3882V17.706C98.3658 16.9246 97.5466 16.534 96.5132 16.534C95.3538 16.534 94.3961 17.1263 93.6399 18.3109C92.8838 19.4703 92.5057 21.3228 92.5057 23.8684C92.5057 26.2881 92.846 28.0524 93.5265 29.1614C94.2322 30.2704 95.1648 30.8249 96.3242 30.8249Z" fill="white"></path><path d="M127.774 5.79688V30.5224C127.774 30.9257 127.888 31.2281 128.115 31.4298L130.005 33.2823V33.3579H121.612V29.8041C120.503 32.3749 118.65 33.6604 116.054 33.6604C113.836 33.6604 112.034 32.816 110.648 31.1273C109.287 29.4386 108.606 27.082 108.606 24.0575C108.606 21.159 109.362 18.815 110.875 17.0254C112.412 15.2359 114.366 14.3412 116.735 14.3412C119.079 14.3412 120.704 15.3493 121.612 17.3657V9.53973C121.612 9.13646 121.486 8.8214 121.234 8.59456L119.419 6.85546V6.77985L127.774 5.79688ZM118.965 30.8249C119.999 30.8249 120.881 30.346 121.612 29.3882V17.706C121.007 16.9246 120.188 16.534 119.154 16.534C117.995 16.534 117.037 17.1263 116.281 18.3109C115.525 19.4703 115.147 21.3228 115.147 23.8684C115.147 26.2881 115.487 28.0524 116.168 29.1614C116.873 30.2704 117.806 30.8249 118.965 30.8249Z" fill="white"></path><path d="M139.369 5.79688V30.6358C139.369 31.0139 139.495 31.3163 139.747 31.5432L141.599 33.2823V33.3579H131.014V33.2823L132.866 31.5432C133.093 31.3163 133.206 31.0139 133.206 30.6358V9.53973C133.206 9.13646 133.093 8.8214 132.866 8.59456L131.014 6.85546V6.77985L139.369 5.79688Z" fill="white"></path><path d="M160.542 23.1501H149.2V23.2257C149.2 25.5445 149.704 27.2836 150.712 28.443C151.72 29.5772 153.018 30.1443 154.606 30.1443C157.278 30.1443 159.194 28.9849 160.353 26.6661H160.429C159.471 31.3289 156.686 33.6604 152.073 33.6604C149.477 33.6604 147.284 32.8538 145.495 31.2407C143.705 29.6276 142.811 27.2584 142.811 24.1331C142.811 20.8313 143.705 18.3739 145.495 16.7608C147.284 15.1477 149.553 14.3412 152.3 14.3412C153.359 14.3412 154.354 14.4798 155.287 14.757C156.219 15.0343 157.089 15.4628 157.896 16.0425C158.727 16.6222 159.383 17.4539 159.861 18.5377C160.34 19.5963 160.58 20.8565 160.58 22.3184C160.58 22.5704 160.567 22.8477 160.542 23.1501ZM152.225 15.0595C151.242 15.0595 150.498 15.6392 149.994 16.7986C149.49 17.9328 149.225 19.8231 149.2 22.4696H154.758C154.783 22.1419 154.795 21.7639 154.795 21.3354C154.795 18.9914 154.569 17.3657 154.115 16.4583C153.686 15.5258 153.056 15.0595 152.225 15.0595Z" fill="white"></path><circle cx="20" cy="20" r="20" fill="white"></circle><path d="M29.1913 11.5366C29.1913 11.5366 30.3875 8.56657 30.2328 7.88593C30.0885 7.22592 30.0782 7.01967 28.9953 6.21528C28.5622 6.41122 27.7887 6.68967 27.1597 6.56591C26.2315 6.3906 25.7572 6.07091 25.3137 5.67903C24.8703 5.28714 24.6331 4.70964 24.5918 4.36932C24.5815 4.28682 24.6743 4.22494 24.7465 4.27651C25.1281 4.55495 25.4375 5.06027 26.5203 5.42121C27.1391 5.62746 27.6444 5.56559 27.9538 5.46246C26.5822 4.5137 24.5918 3.2143 23.4059 2.82242C21.8899 2.32741 21.2093 3.2968 21.2093 3.2968L19.7861 5.54496C19.7861 5.54496 22.1787 5.89559 24.6228 7.26717C27.0566 8.62844 29.1913 11.5366 29.1913 11.5366Z" fill="#4B11F2"></path><path d="M33.0067 14.9101C32.7076 14.9514 32.2539 14.9514 31.6454 14.7967C29.2632 14.1264 27.7988 10.1973 23.6738 7.72223C17.084 4.31906 13.5467 7.39222 13.5467 7.39222C13.093 7.7016 13.557 7.89754 13.557 7.89754L15.7227 8.99068L16.7437 9.52694C16.7437 9.52694 16.094 10.3623 14.7739 9.72288C14.3408 9.53726 13.4745 9.48569 12.8042 10.0838C12.072 10.486 12.3917 11.6513 11.8555 12.3939C11.3295 13.1364 10.2776 13.0126 10.1642 14.0851C10.0714 15.1783 10.9376 15.3845 10.9583 16.1992C10.9789 17.0139 10.6798 17.478 10.5973 17.6946C10.5664 17.7874 10.5458 17.9008 10.5458 18.0143C10.5561 18.1689 10.6283 18.3236 10.7314 18.4474C10.8139 18.5402 10.8861 18.6021 10.9686 18.6536C11.3192 18.8908 11.6183 19.2002 11.8142 19.5715C11.8451 19.6333 11.8761 19.6952 11.9173 19.7571C11.9483 19.8087 11.9792 19.8705 12.0205 19.9427C12.2473 20.3449 12.3402 20.8193 12.2577 21.2834C12.237 21.4071 12.2473 21.5515 12.2886 21.6856C12.3711 21.9331 12.5877 22.1187 12.8455 22.1909C13.227 22.2837 13.557 22.5106 13.7839 22.8303C13.8045 22.8509 13.8149 22.8818 13.8355 22.9024C14.1449 23.3356 14.083 24.0162 14.2067 24.5112C14.3305 25.0062 14.743 25.1609 15.3411 25.5012C15.9393 25.8416 16.063 26.3778 15.8155 26.6356C15.568 26.8934 14.1036 26.2644 13.5158 26.9656C13.0827 27.3678 13.2683 27.6256 13.0517 28.3888C12.8352 29.1622 12.1751 28.595 11.8245 29.1313C11.4739 29.6675 11.4223 30.2451 11.5976 31.3898C11.773 32.5345 12.8867 34.1123 12.8867 34.1123C12.8867 34.1123 12.2886 32.0291 13.588 30.2451C14.6914 28.9457 15.5371 28.7703 16.7849 28.7497C18.043 28.7188 19.8993 29.8532 20.2809 32.0807C20.4768 33.5554 19.6724 34.4114 19.6106 34.4939C19.4662 34.6589 18.2802 35.9686 16.7024 35.092C16.2693 34.7929 15.8877 34.4836 15.6299 33.8854C15.4443 33.3388 15.3927 32.6066 15.7021 32.1116C15.9599 31.6991 16.3724 31.5754 16.4962 31.5651C16.6818 31.5444 17.084 31.5548 17.3418 31.7507C17.5996 31.9466 17.878 32.2354 17.8265 32.7304C17.7749 33.2254 17.2593 33.3698 17.0633 33.3285C16.8983 33.2976 17.0118 33.3182 17.053 33.3285C16.7333 33.3079 16.589 33.0604 16.5271 32.8851C16.5168 32.8438 16.4549 32.8542 16.4446 32.8954C16.3518 33.576 16.8674 34.0092 17.1768 34.0814C17.5171 34.1535 18.0224 34.1432 18.4349 33.7204C18.7959 33.3595 18.9918 33.0501 18.9918 32.256C18.9918 31.6063 18.7237 31.1526 18.2802 30.7607C17.7027 30.2244 16.9396 30.0182 16.4136 30.0594C15.9186 30.1007 15.0524 30.3069 14.4852 31.2041C13.9592 32.0291 13.7324 33.1635 14.1758 34.432L14.1964 34.4732C15.2071 36.8348 17.5687 37.433 19.1981 37.433C19.5281 37.433 19.8271 37.4123 20.0746 37.3711C20.1262 37.3608 21.2915 37.1855 22.4259 36.4842C23.8284 35.5561 24.6638 34.2154 24.6638 32.1426C24.6638 29.3891 23.4572 27.5535 20.9822 24.6865C20.5078 24.0987 18.5793 21.7165 18.2287 21.2524C16.5065 19.0249 14.578 16.4055 15.5371 14.4151C15.568 14.3533 15.5989 14.3017 15.6299 14.2398C17.0633 11.6101 21.1059 12.2598 20.219 12.4248C18.6824 12.6826 17.7646 13.3632 17.4862 13.6623C17.2077 13.9614 17.053 14.2192 16.8674 14.7039C16.5477 15.498 16.8055 16.7252 17.4862 17.7977C20.4459 21.9949 24.8185 27.2234 25.3547 28.4816C26.0457 30.0697 26.1488 31.3279 26.1385 32.1013C26.1282 32.8748 25.9425 34.1123 25.9425 34.1123C25.9425 34.1123 26.9635 33.2976 27.4482 32.3076C27.9329 31.3176 28.0154 30.8432 27.871 30.4719C27.7163 30.1007 27.3347 30.0904 27.1801 29.4819C27.0254 28.8735 27.4585 28.3372 27.0047 27.3678C26.8088 26.945 25.7672 26.3262 25.231 25.6456C24.6947 24.965 23.715 23.7481 22.9828 22.7684C21.6628 21.0152 21.2297 20.4171 20.4665 19.4271C21.2915 19.6746 22.3228 20.0149 24.6947 18.9115C26.8913 20.0355 28.3969 19.9737 28.9229 19.9427C29.4488 19.9118 29.9438 19.6746 30.3254 19.3755C30.5729 19.1796 30.7585 18.7877 30.872 18.5299C30.9132 18.4371 30.8204 18.3546 30.7276 18.3855C28.8816 19.1486 27.1801 18.5299 25.0866 17.3646L24.7153 17.1583L24.3441 17.3542C22.1475 18.5299 19.8374 17.6121 19.6312 17.5296C19.5487 17.4883 18.9196 17.1583 18.6412 16.6014C18.3627 16.0445 18.3009 15.4567 18.5071 14.9617C18.6721 14.5595 19.064 14.2914 19.7034 14.1573C20.2293 14.0954 20.91 14.2914 21.4565 14.508C21.5803 14.5595 21.6937 14.4358 21.6422 14.3223C21.5803 14.1573 21.539 13.982 21.539 13.7964C21.539 13.487 21.6422 13.2086 21.8072 12.9817L22.5394 13.322C22.4156 13.4457 22.3434 13.6314 22.364 13.8376C22.395 14.1058 22.6219 14.3326 22.89 14.3636C23.2509 14.4151 23.55 14.147 23.5809 13.8067L24.2719 14.1264C24.1481 14.6317 23.7563 15.0236 23.2509 15.1473C23.1478 15.168 23.1375 15.302 23.2406 15.333C24.1791 15.7764 26.9222 17.0552 26.9222 17.0552C26.9222 17.0552 28.5104 17.9421 29.9026 17.7667C31.2432 17.6946 31.8414 16.6324 31.0473 16.7355C30.2532 16.8386 28.3763 16.0239 28.3763 16.0239L27.1182 15.4361L27.6441 14.6214C27.6441 14.6214 29.4385 15.6423 31.0267 15.993C32.0786 16.2199 32.7901 15.6217 33.1511 15.1886C33.2645 15.0751 33.1614 14.8895 33.0067 14.9101ZM18.3215 11.3317C17.6512 11.4142 16.6302 11.7235 16.0527 12.002C15.8361 12.1051 15.6505 12.2082 15.4958 12.301C14.9905 12.631 14.5367 13.1261 14.1758 13.8067C12.763 16.5499 15.3514 19.9118 17.4346 22.6137C17.7852 23.0674 18.1049 23.4903 18.3937 23.8821C18.8371 24.4906 19.3218 25.0887 19.7962 25.6559C21.0131 27.1513 22.3537 28.7394 22.9312 30.5029C23.0859 31.1216 23.1066 31.6991 23.0344 32.1632C22.7869 33.607 21.5287 34.102 21.5287 34.102C21.7144 33.5038 21.8175 32.7304 21.704 31.8435V31.8229C21.3225 29.75 19.6415 27.9144 19.6415 27.9144C19.2393 27.3781 18.8062 26.8213 18.4556 26.3675C14.9183 21.8196 14.5677 21.304 13.7324 19.788L13.722 19.7674C13.7014 19.7262 13.6705 19.6746 13.6395 19.623C13.1549 18.8083 11.8555 16.6324 12.4227 14.3533C12.5567 13.8273 12.7939 13.3529 13.1342 12.9404C15.2071 10.2488 19.1774 11.1667 18.3215 11.3317Z" fill="#4B11F2"></path></svg>
